icons/src/scalable/default/ui/focus-windows-symbolic.svg

<svg version="1.1" viewBox="0 0 16 16" xmlns="http://www.w3.org/2000/svg">
 <path d="m8 1c-0.554 0-1 0.446-1 1v6c0 0.554 0.446 1 1 1h6c0.554 0 1-0.446 1-1v-6c0-0.554-0.446-1-1-1zm6 2v4.5c0 0.277-0.223 0.5-0.5 0.5h-5c-0.277 0-0.5-0.223-0.5-0.5v-4.5z" fill="#bebebe" fill-rule="evenodd"/>
 <path d="m2 7c-0.554 0-1 0.446-1 1v6c0 0.554 0.446 1 1 1h6c0.554 0 1-0.446 1-1v-4h-1v3.5c0 0.277-0.223 0.5-0.5 0.5h-5c-0.277 0-0.5-0.223-0.5-0.5v-4.5h4v-2h-4z" fill="#bebebe" fill-rule="evenodd"/>
</svg>

<?xml version="1.0" encoding="UTF-8" standalone="no"?>
<svg
   xmlns:dc="http://purl.org/dc/elements/1.1/"
   xmlns:cc="http://creativecommons.org/ns#"
   xmlns:rdf="http://www.w3.org/1999/02/22-rdf-syntax-ns#"
   xmlns:svg="http://www.w3.org/2000/svg"
   xmlns="http://www.w3.org/2000/svg"
   xmlns:sodipodi="http://sodipodi.sourceforge.net/DTD/sodipodi-0.dtd"
   xmlns:inkscape="http://www.inkscape.org/namespaces/inkscape"
   width="16"
   height="16"
   version="1.1"
   id="svg8"
   sodipodi:docname="focus-windows-symbolic.svg"
   inkscape:version="1.0.2 (e86c870879, 2021-01-15)">
  <metadata
     id="metadata14">
    <rdf:RDF>
      <cc:Work
         rdf:about="">
        <dc:format>image/svg+xml</dc:format>
        <dc:type
           rdf:resource="http://purl.org/dc/dcmitype/StillImage" />
      </cc:Work>
    </rdf:RDF>
  </metadata>
  <defs
     id="defs12" />
  <sodipodi:namedview
     pagecolor="#ffffff"
     bordercolor="#666666"
     borderopacity="1"
     objecttolerance="10"
     gridtolerance="10"
     guidetolerance="10"
     inkscape:pageopacity="0"
     inkscape:pageshadow="2"
     inkscape:window-width="1920"
     inkscape:window-height="1016"
     id="namedview10"
     showgrid="true"
     inkscape:zoom="19.445437"
     inkscape:cx="19.246473"
     inkscape:cy="7.8197488"
     inkscape:window-x="0"
     inkscape:window-y="27"
     inkscape:window-maximized="1"
     inkscape:current-layer="svg8"
     inkscape:document-rotation="0">
    <inkscape:grid
       type="xygrid"
       id="grid839" />
  </sodipodi:namedview>
  <path
     id="rect833"
     style="opacity:1;fill:#bebebe;fill-rule:evenodd;stroke:none;stroke-linejoin:round;fill-opacity:1"
     d="m 8,1 c -0.554,0 -1,0.446 -1,1 v 6 c 0,0.554 0.446,1 1,1 h 6 c 0.554,0 1,-0.446 1,-1 v -6 c 0,-0.554 -0.446,-1 -1,-1 z m 6,2 v 4.5 c 0,0.277 -0.223,0.5 -0.5,0.5 h -5 c -0.277,0 -0.5,-0.223 -0.5,-0.5 v -4.5 z"
     sodipodi:nodetypes="ssssssssscsssscc" />
  <path
     id="path840"
     style="opacity:1;fill:#bebebe;fill-opacity:1;fill-rule:evenodd;stroke:none;stroke-linejoin:round"
     d="M 2 7 C 1.446 7 1 7.446 1 8 L 1 14 C 1 14.554 1.446 15 2 15 L 8 15 C 8.554 15 9 14.554 9 14 L 9 10 L 8 10 L 8 13.5 C 8 13.777 7.777 14 7.5 14 L 2.5 14 C 2.223 14 2 13.777 2 13.5 L 2 9 L 6 9 L 6 7 L 2 7 z " />
</svg>
